X: 18897
T: Inagh Valley
R: polka
M: 2/4
K: Dmajor
G3A/c/|d4-|d4|=f3g/a/|g3d|e4-|e4-|e4|=fedG|
A4-|A4-|A4|c3B|G4-|G4-|G4|
G3A/c/|d4-|d4|=f3g/a/|g3d|e4-|e4-|e4|=fedG|
A4-|A4-|A4|d3c/B/|G4-|G4-|G4|z4|
B4-|B3A|G4|G3E|A4-|A4-|A4|G3A/c/|e4-|e4-|e2ed|
c3G|A4|A4-|A4|{cBA}B4-|B2d/c/B/A/|B3c|BAGE A4-|
A4-|A4|G3A/c/|d4-|d4-|d2e2|g3e|d4-|d4-|d4||

